packages/icons/src/cet-critical-events-settings.svg

<svg fill="none" viewBox="0 0 32 32" xmlns="http://www.w3.org/2000/svg"><g fill="#0278d5"><path d="m13.5365 11.7491c0-.4228-.3428-.7657-.7657-.7657-.4228 0-.7657.3429-.7657.7657v4.6958c0 .4228.3429.7656.7657.7656.4229 0 .7657-.3428.7657-.7656z"/><path d="m13.5365 19.0795c0-.4228-.3428-.7657-.7657-.7657-.4228 0-.7657.3429-.7657.7657v.1793c0 .4228.3429.7657.7657.7657.4229 0 .7657-.3429.7657-.7657z"/><path d="m14.8824 7.89068c-.884-1.53132-3.0943-1.53132-3.9784 0l-6.56891 11.37772c-.88411 1.5313.22103 3.4455 1.98925 3.4455h7.89836v-1.5313h-7.89836c-.58942 0-.9578-.6381-.66309-1.1485l6.56895-11.37776c.2946-.51043 1.0315-.51043 1.3261 0l3.0155 5.22296 1.3243-.7687z"/><path d="m18.4153 24.7679-.2074-.2074zm6.8392.0012-.2074.2074zm.9216-.9219-.2074.2074zm-.9193-7.7644-.2074-.2074zm-.4406.0305-.1711.2383zm1.1319-.2609-.2074.2074zm-.4608 0 .2074.2074zm.9217.9218.2074.2074zm0-.4609-.2074.2074zm-.2899 1.1452-.2437.1634zm.0362-.4306.2074.2074zm.7734 2.4573-.2891.0493zm-.5221 5.0534.2074.2074zm0-.4608.2074-.2074zm-1.2141.6293-.2074.2074zm-6.7739.0574-.2073-.2074zm.4307-.0362-.1633.2436zm-1.1253.2701-.2074.2073zm-.4609-.4609.2074-.2074zm.2569-1.0902-.2374.1723zm-.0265.3989.2074.2073zm.0201-6.5392-.2377-.1717zm7.9712 7.6925-.2074.2074zm.461 0-.2075-.2073zm-8.6839-8.2254.2074-.2073zm3.6939-1.5794-.0448-.2898zm-3.2331.6577.2074.2073zm5.0437 9.6645.0558.288zm-4.3524-9.4341-.2075.2073zm7.6638 7.2649-.2413-.1667zm-9.492-3.7848.2899.0449zm4.3076 5.978.0484-.2893zm1.8359-10.3193-.0537.2884zm-.5364-.6115v.3259h.5866v-.3259zm-.6844-.0326h.6518v-.5866h-.6518zm-.0326.3585v-.3259h-.5866v.3259zm-2.5833 1.408c.6135-.438 1.3309-.7392 2.1081-.8594l-.0897-.5797c-.8701.1346-1.6731.4719-2.3592.9617zm-.9164-.2843.2303.2304.4149-.4147-.2304-.2304zm-.5069.461.4608-.461-.4149-.4147-.4608.461zm.2305.2766-.2305-.2305-.4149.4147.2305.2305zm-.8241 2.8105c.1219-.786.4291-1.511.8756-2.129l-.4754-.3435c-.4994.6911-.8433 1.5025-.9799 2.3826zm-.8562.4587h.3259v-.5866h-.3259zm-.0326.6843v-.6517h-.5866v.6517zm.3585.0326h-.3259v.5866h.3259zm1.4119 2.4917c-.4289-.591-.73-1.2802-.8633-2.0274l-.5775.103c.1493.8366.4865 1.6081.9661 2.2689zm-.2868 1.0089.2304-.2305-.4148-.4147-.2304.2304zm.4608.507-.4608-.4609-.4148.4148.4609.4608zm.2766-.2305-.2305.2305.4148.4147.2305-.2304zm.0034-.0034-.0034.0034.4148.4148.0033-.0034zm2.7305.6945c-.7046-.1178-1.3587-.3845-1.9291-.7669l-.3267.4872c.638.4278 1.3703.7264 2.1591.8583zm.5341.6633v-.042h-.5866v.042zm0 .3259v-.3259h-.5866v.3259zm.6844.0326h-.6518v.5866h.6518zm.0326-.3585v.3259h.5866v-.3259zm0-.0675v.0675h.5866v-.0675zm2.3959-1.4135c-.5542.3863-1.1909.6619-1.8782.7951l.1116.5759c.7696-.1492 1.4823-.4578 2.1021-.8898zm.8731.1279-.062-.062-.4148.4147.062.062zm.2304.2304-.2304-.2304-.4148.4147.2303.2304zm.5069-.461-.4609.461.4149.4147.4608-.4609zm-.2305-.2766.2305.2306.4148-.4148-.2305-.2305zm-.0649-.0649.0649.0649.4148-.4147-.0648-.0649zm.7191-2.6864c-.1306.6866-.4032 1.323-.7864 1.8777l.4826.3334c.4286-.6203.7338-1.3327.8801-2.1015zm.7015-.5199h-.0827v.5866h.0827zm.3259 0h-.3259v.5866h.3259zm.0325-.6843v.6517h.5867v-.6517zm-.3584-.0326h.3259v-.5866h-.3259zm-.0639 0h.0639v-.5866h-.0639zm-1.3851-2.4446c.3795.566.645 1.2144.7642 1.9126l.5782-.0986c-.1334-.7818-.4307-1.5076-.8551-2.1407zm.0958-.8247-.0233.0233.4148.4148.0233-.0233zm.2304-.2304-.2304.2304.4148.4148.2304-.2304zm-.4609-.507.4609.4609.4148-.4148-.4609-.4609zm-.2765.2304.2305-.2304-.4148-.4148-.2305.2304zm-2.7886-.7802c.7242.1349 1.393.4277 1.9695.8416l.3421-.4765c-.6447-.4629-1.3933-.7907-2.2042-.9418zm1.9849 4.9155c0 1.552-1.2638 2.8122-2.8254 2.8122v.5866c1.8832 0 3.412-1.5205 3.412-3.3988zm-2.8254-2.8122c1.5616 0 2.8254 1.2602 2.8254 2.8122h.5866c0-1.8783-1.5288-3.3988-3.412-3.3988zm-2.8253 2.8122c0-1.552 1.2638-2.8122 2.8253-2.8122v-.5866c-1.8832 0-3.4119 1.5205-3.4119 3.3988zm2.8253 2.8122c-1.5615 0-2.8253-1.2602-2.8253-2.8122h-.5866c0 1.8783 1.5287 3.3988 3.4119 3.3988zm3.2143-7.3623c-.0055.0056-.0135.0098-.0251.0105-.0123.0008-.0256-.0026-.0371-.0108l-.3421.4765c.2447.1756.5936.1641.8191-.0614zm1.1061-.2304c-.2418-.2418-.6338-.2418-.8756 0l.4148.4148c.0127-.0127.0333-.0127.046 0zm.4609 1.3366c.2418-.2419.2418-.6339 0-.8757l-.4148.4148c.0128.0127.0128.0333 0 .0461zm-.2537.3136c-.008-.0119-.0109-.0251-.01-.0365.0008-.0108.0047-.0182.01-.0234l-.4148-.4148c-.2205.2205-.2355.5582-.0725.8014zm.8978 2.1847c-.0076 0-.0157-.0025-.0241-.0099-.0089-.0078-.0161-.0196-.0186-.0341l-.5782.0986c.0502.2943.3024.532.6209.532zm1.009.6192c0-.342-.2773-.6192-.6192-.6192v.5866c.018 0 .0325.0146.0325.0326zm-.6192 1.2709c.3419 0 .6192-.2772.6192-.6192h-.5867c0 .018-.0145.0326-.0325.0326zm-.4511.0429c.0027-.0142.01-.0257.0188-.0333.0082-.0071.0163-.0096.0237-.0096v-.5866c-.3136 0-.5638.2309-.6188.5199zm-.5852 3.3331c.2417-.2418.2417-.6338 0-.8756l-.4148.4148c.0127.0127.0127.0333 0 .046zm-1.6897.1691c.0119-.0083.0253-.0115.0369-.0107.011.0008.0185.0047.0239.0101l.4148-.4147c-.2237-.2239-.5675-.2357-.8111-.0659zm-2.764 1.9449c.3419 0 .6192-.2772.6192-.6192h-.5866c0 .018-.0146.0326-.0326.0326zm-3.5343-1.8881c.0053-.0052.0127-.0092.0235-.01.0114-.0009.0246.002.0365.01l.3267-.4872c-.2432-.163-.5809-.1481-.8014.0724zm-1.1094.2338c.2418.2419.6338.2419.8756 0l-.4148-.4147c-.0127.0127-.0333.0127-.0461 0zm-.4609-1.3365c-.2418.2418-.2418.6339 0 .8757l.4148-.4148c-.0128-.0128-.0128-.0334 0-.0461zm.2269-.2496c.0038.0052.005.0108.0047.015-.0001.002-.0005.0031-.0007.0034 0 .0002-.0001.0004-.0005.0008l.4148.4147c.2152-.2151.2245-.5469.0564-.7784zm-1.8823-2.8688c0 .342.2772.6192.6192.6192v-.5866c-.018 0-.0326-.0146-.0326-.0326zm1.8846-3.5388c-.0256-.0256-.0222-.0585-.009-.0767l.4754.3435c.1474-.2039.1361-.4938-.0515-.6815zm7.9925 7.9949c.2418.2419.634.2419.8758 0l-.4149-.4147c-.0127.0127-.0333.0127-.046 0zm-8.223-9.1009c-.2417.2417-.2417.6337 0 .8755l.4149-.4147c-.0127-.0128-.0127-.0334 0-.0461zm3.8349-1.17c0-.0103.0042-.0188.0084-.0236.0039-.0044.0087-.0068.0133-.0075l.0897.5797c.2637-.0408.4752-.2659.4752-.5486zm-2.4983.709c-.2418-.2419-.6339-.2419-.8758 0l.4149.4147c.0127-.0127.0334-.0127.0461 0zm-2.3715 3.8349c-.342 0-.6192.2772-.6192.6192h.5866c0-.018.0146-.0326.0326-.0326zm4.8698 6.7609c0 .342.2772.6192.6192.6192v-.5866c-.018 0-.0326-.0146-.0326-.0326zm.6192-12.2499c-.342 0-.6192.2772-.6192.6192h.5866c0-.018.0146-.0326.0326-.0326zm-5.1631 7.3791c-.0096 0-.0175-.0038-.0219-.0077-.0041-.0035-.0063-.0077-.007-.0116l.5775-.103c-.0462-.2591-.2699-.4643-.5486-.4643zm6.4341 4.4774c0-.0075.0024-.0155.0095-.0237.0075-.0088.019-.0161.0332-.0188l-.1116-.5759c-.2881.0558-.5177.3056-.5177.6184zm-4.2277-9.9808c.0159-.0114.0459-.0149.0696.0088l-.4149.4147c.1888.1889.4801.201.6861.0539zm7.7669 7.7084c-.0054-.0053-.0093-.0128-.0101-.0237-.0008-.0116.0023-.025.0105-.0369l-.4826-.3334c-.1682.2434-.1556.5857.0673.8087zm-10.0227-4.0571c.0025-.0161.0184-.038.0494-.038v.5866c.2728 0 .4907-.2036.5303-.4587zm4.5491 6.3123c.0145.0024.0265.0096.0343.0185.0074.0084.0099.0165.0099.0242h.5866c0-.3194-.2389-.572-.5341-.6213zm1.9379-10.8969c-.0027-.0005-.0043-.0018-.0049-.0024-.0001-.0002.0002.0001.0006.0012.0005.0013.0008.0027.0008.0039h-.5866c0 .2907.2134.5238.4827.574zm-.0035-.3232c0-.342-.2773-.6192-.6192-.6192v.5866c.018 0 .0326.0146.0326.0326z"/></g></svg>

<svg width="32" height="33" viewBox="0 0 32 33" fill="none" xmlns="http://www.w3.org/2000/svg">
<path d="M13.5365 11.7491C13.5365 11.3263 13.1937 10.9834 12.7708 10.9834C12.348 10.9834 12.0051 11.3263 12.0051 11.7491V16.4449C12.0051 16.8677 12.348 17.2105 12.7708 17.2105C13.1937 17.2105 13.5365 16.8677 13.5365 16.4449V11.7491Z" fill="#0278D5"/>
<path d="M13.5365 19.0795C13.5365 18.6567 13.1937 18.3138 12.7708 18.3138C12.348 18.3138 12.0051 18.6567 12.0051 19.0795V19.2588C12.0051 19.6816 12.348 20.0245 12.7708 20.0245C13.1937 20.0245 13.5365 19.6816 13.5365 19.2588V19.0795Z" fill="#0278D5"/>
<path d="M14.8824 7.89068C13.9984 6.35936 11.7881 6.35936 10.904 7.89068L4.33509 19.2684C3.45098 20.7997 4.55612 22.7139 6.32434 22.7139H14.2227V21.1826H6.32434C5.73492 21.1826 5.36654 20.5445 5.66125 20.0341L12.2302 8.65634C12.5248 8.14591 13.2617 8.14591 13.5563 8.65634L16.5718 13.8793L17.8961 13.1106L14.8824 7.89068Z" fill="#0278D5"/>
<path d="M18.4153 24.7679L18.2079 24.5605L18.2079 24.5605L18.4153 24.7679ZM25.2545 24.7691L25.0471 24.9765L25.0471 24.9765L25.2545 24.7691ZM26.1761 23.8472L25.9687 24.0546L25.9687 24.0546L26.1761 23.8472ZM25.2568 16.0828L25.0494 15.8754L25.0494 15.8754L25.2568 16.0828ZM24.8162 16.1133L24.6451 16.3516L24.8162 16.1133ZM25.9481 15.8524L25.7407 16.0598L25.9481 15.8524ZM25.4873 15.8524L25.6947 16.0598L25.4873 15.8524ZM26.409 16.7742L26.6164 16.9816L26.409 16.7742ZM26.409 16.3133L26.2016 16.5207L26.409 16.3133ZM26.1191 17.4585L25.8754 17.6219L26.1191 17.4585ZM26.1553 17.0279L26.3627 17.2353L26.1553 17.0279ZM26.9287 19.4852L26.6396 19.5345L26.9287 19.4852ZM26.4066 24.5386L26.614 24.746L26.4066 24.5386ZM26.4066 24.0778L26.614 23.8704L26.4066 24.0778ZM25.1925 24.7071L24.9851 24.9145L25.1925 24.7071ZM18.4186 24.7645L18.2113 24.5571L18.4186 24.7645ZM18.8493 24.7283L18.686 24.9719L18.8493 24.7283ZM17.724 24.9984L17.5166 25.2057L17.724 24.9984ZM17.2631 24.5375L17.4705 24.3301L17.2631 24.5375ZM17.52 23.4473L17.2826 23.6196L17.52 23.4473ZM17.4935 23.8462L17.7009 24.0535L17.7009 24.0535L17.4935 23.8462ZM17.5136 17.307L17.2759 17.1353L17.5136 17.307ZM25.4848 24.9995L25.2774 25.2069L25.4848 24.9995ZM25.9458 24.9995L25.7383 24.7922L25.9458 24.9995ZM17.2619 16.7741L17.4693 16.5668L17.2619 16.7741ZM20.9558 15.1947L20.911 14.9049L20.9558 15.1947ZM17.7227 15.8524L17.9301 16.0597L17.7227 15.8524ZM22.7664 25.5169L22.8222 25.8049L22.7664 25.5169ZM18.414 16.0828L18.2065 16.2901L18.2065 16.2901L18.414 16.0828ZM26.0778 23.3477L25.8365 23.181L26.0778 23.3477ZM16.5858 19.5629L16.8757 19.6078L16.5858 19.5629ZM20.8934 25.5409L20.9418 25.2516L20.8934 25.5409ZM22.7293 15.2216L22.6756 15.51L22.7293 15.2216ZM22.1929 14.6101V14.936H22.7795V14.6101H22.1929ZM21.5085 14.5775H22.1603V13.9909H21.5085V14.5775ZM21.4759 14.936V14.6101H20.8893V14.936H21.4759ZM18.8926 16.344C19.5061 15.906 20.2235 15.6048 21.0007 15.4846L20.911 14.9049C20.0409 15.0395 19.2379 15.3768 18.5518 15.8666L18.8926 16.344ZM17.9762 16.0597L18.2065 16.2901L18.6214 15.8754L18.391 15.645L17.9762 16.0597ZM17.4693 16.5207L17.9301 16.0597L17.5152 15.645L17.0544 16.106L17.4693 16.5207ZM17.6998 16.7973L17.4693 16.5668L17.0544 16.9815L17.2849 17.212L17.6998 16.7973ZM16.8757 19.6078C16.9976 18.8218 17.3048 18.0968 17.7513 17.4788L17.2759 17.1353C16.7765 17.8264 16.4326 18.6378 16.296 19.5179L16.8757 19.6078ZM16.0195 20.0665H16.3454V19.4799H16.0195V20.0665ZM15.9869 20.7508V20.0991H15.4003V20.7508H15.9869ZM16.3454 20.7834H16.0195V21.37H16.3454V20.7834ZM17.7573 23.2751C17.3284 22.6841 17.0273 21.9949 16.894 21.2477L16.3165 21.3507C16.4658 22.1873 16.803 22.9588 17.2826 23.6196L17.7573 23.2751ZM17.4705 24.284L17.7009 24.0535L17.2861 23.6388L17.0557 23.8692L17.4705 24.284ZM17.9313 24.791L17.4705 24.3301L17.0557 24.7449L17.5166 25.2057L17.9313 24.791ZM18.2079 24.5605L17.9774 24.791L18.3922 25.2057L18.6227 24.9753L18.2079 24.5605ZM18.2113 24.5571L18.2079 24.5605L18.6227 24.9753L18.626 24.9719L18.2113 24.5571ZM20.9418 25.2516C20.2372 25.1338 19.5831 24.8671 19.0127 24.4847L18.686 24.9719C19.324 25.3997 20.0563 25.6983 20.8451 25.8302L20.9418 25.2516ZM21.4759 25.9149V25.8729H20.8893V25.9149H21.4759ZM21.4759 26.2408V25.9149H20.8893V26.2408H21.4759ZM22.1603 26.2734H21.5085V26.86H22.1603V26.2734ZM22.1929 25.9149V26.2408H22.7795V25.9149H22.1929ZM22.1929 25.8474V25.9149H22.7795V25.8474H22.1929ZM24.5888 24.4339C24.0346 24.8202 23.3979 25.0958 22.7106 25.229L22.8222 25.8049C23.5918 25.6557 24.3045 25.3471 24.9243 24.9151L24.5888 24.4339ZM25.4619 24.5618L25.3999 24.4998L24.9851 24.9145L25.0471 24.9765L25.4619 24.5618ZM25.6923 24.7922L25.4619 24.5618L25.0471 24.9765L25.2774 25.2069L25.6923 24.7922ZM26.1992 24.3312L25.7383 24.7922L26.1532 25.2069L26.614 24.746L26.1992 24.3312ZM25.9687 24.0546L26.1992 24.2852L26.614 23.8704L26.3835 23.6399L25.9687 24.0546ZM25.9038 23.9897L25.9687 24.0546L26.3835 23.6399L26.3187 23.575L25.9038 23.9897ZM26.6229 21.3033C26.4923 21.9899 26.2197 22.6263 25.8365 23.181L26.3191 23.5144C26.7477 22.8941 27.0529 22.1817 27.1992 21.4129L26.6229 21.3033ZM27.3244 20.7834H27.2417V21.37H27.3244V20.7834ZM27.6503 20.7834H27.3244V21.37H27.6503V20.7834ZM27.6828 20.0991V20.7508H28.2695V20.0991H27.6828ZM27.3244 20.0665H27.6503V19.4799H27.3244V20.0665ZM27.2605 20.0665H27.3244V19.4799H27.2605V20.0665ZM25.8754 17.6219C26.2549 18.1879 26.5204 18.8363 26.6396 19.5345L27.2178 19.4359C27.0844 18.6541 26.7871 17.9283 26.3627 17.2952L25.8754 17.6219ZM25.9712 16.7972L25.9479 16.8205L26.3627 17.2353L26.386 17.212L25.9712 16.7972ZM26.2016 16.5668L25.9712 16.7972L26.386 17.212L26.6164 16.9816L26.2016 16.5668ZM25.7407 16.0598L26.2016 16.5207L26.6164 16.1059L26.1555 15.645L25.7407 16.0598ZM25.4642 16.2902L25.6947 16.0598L25.2799 15.645L25.0494 15.8754L25.4642 16.2902ZM22.6756 15.51C23.3998 15.6449 24.0686 15.9377 24.6451 16.3516L24.9872 15.8751C24.3425 15.4122 23.5939 15.0844 22.783 14.9333L22.6756 15.51ZM24.6605 20.4255C24.6605 21.9775 23.3967 23.2377 21.8351 23.2377V23.8243C23.7183 23.8243 25.2471 22.3038 25.2471 20.4255H24.6605ZM21.8351 17.6133C23.3967 17.6133 24.6605 18.8735 24.6605 20.4255H25.2471C25.2471 18.5472 23.7183 17.0267 21.8351 17.0267V17.6133ZM19.0098 20.4255C19.0098 18.8735 20.2736 17.6133 21.8351 17.6133V17.0267C19.9519 17.0267 18.4232 18.5472 18.4232 20.4255H19.0098ZM21.8351 23.2377C20.2736 23.2377 19.0098 21.9775 19.0098 20.4255H18.4232C18.4232 22.3038 19.9519 23.8243 21.8351 23.8243V23.2377ZM25.0494 15.8754C25.0439 15.881 25.0359 15.8852 25.0243 15.8859C25.012 15.8867 24.9987 15.8833 24.9872 15.8751L24.6451 16.3516C24.8898 16.5272 25.2387 16.5157 25.4642 16.2902L25.0494 15.8754ZM26.1555 15.645C25.9137 15.4032 25.5217 15.4032 25.2799 15.645L25.6947 16.0598C25.7074 16.0471 25.728 16.0471 25.7407 16.0598L26.1555 15.645ZM26.6164 16.9816C26.8582 16.7397 26.8582 16.3477 26.6164 16.1059L26.2016 16.5207C26.2144 16.5334 26.2144 16.554 26.2016 16.5668L26.6164 16.9816ZM26.3627 17.2952C26.3547 17.2833 26.3518 17.2701 26.3527 17.2587C26.3535 17.2479 26.3574 17.2405 26.3627 17.2353L25.9479 16.8205C25.7274 17.041 25.7124 17.3787 25.8754 17.6219L26.3627 17.2952ZM27.2605 19.4799C27.2529 19.4799 27.2448 19.4774 27.2364 19.47C27.2275 19.4622 27.2203 19.4504 27.2178 19.4359L26.6396 19.5345C26.6898 19.8288 26.942 20.0665 27.2605 20.0665V19.4799ZM28.2695 20.0991C28.2695 19.7571 27.9922 19.4799 27.6503 19.4799V20.0665C27.6683 20.0665 27.6828 20.0811 27.6828 20.0991H28.2695ZM27.6503 21.37C27.9922 21.37 28.2695 21.0928 28.2695 20.7508H27.6828C27.6828 20.7688 27.6683 20.7834 27.6503 20.7834V21.37ZM27.1992 21.4129C27.2019 21.3987 27.2092 21.3872 27.218 21.3796C27.2262 21.3725 27.2343 21.37 27.2417 21.37V20.7834C26.9281 20.7834 26.6779 21.0143 26.6229 21.3033L27.1992 21.4129ZM26.614 24.746C26.8557 24.5042 26.8557 24.1122 26.614 23.8704L26.1992 24.2852C26.2119 24.2979 26.2119 24.3185 26.1992 24.3312L26.614 24.746ZM24.9243 24.9151C24.9362 24.9068 24.9496 24.9036 24.9612 24.9044C24.9722 24.9052 24.9797 24.9091 24.9851 24.9145L25.3999 24.4998C25.1762 24.2759 24.8324 24.2641 24.5888 24.4339L24.9243 24.9151ZM22.1603 26.86C22.5022 26.86 22.7795 26.5828 22.7795 26.2408H22.1929C22.1929 26.2588 22.1783 26.2734 22.1603 26.2734V26.86ZM18.626 24.9719C18.6313 24.9667 18.6387 24.9627 18.6495 24.9619C18.6609 24.961 18.6741 24.9639 18.686 24.9719L19.0127 24.4847C18.7695 24.3217 18.4318 24.3366 18.2113 24.5571L18.626 24.9719ZM17.5166 25.2057C17.7584 25.4476 18.1504 25.4476 18.3922 25.2057L17.9774 24.791C17.9647 24.8037 17.9441 24.8037 17.9313 24.791L17.5166 25.2057ZM17.0557 23.8692C16.8139 24.111 16.8139 24.5031 17.0557 24.7449L17.4705 24.3301C17.4577 24.3173 17.4577 24.2967 17.4705 24.284L17.0557 23.8692ZM17.2826 23.6196C17.2864 23.6248 17.2876 23.6304 17.2873 23.6346C17.2872 23.6366 17.2868 23.6377 17.2866 23.638C17.2866 23.6382 17.2865 23.6384 17.2861 23.6388L17.7009 24.0535C17.9161 23.8384 17.9254 23.5066 17.7573 23.2751L17.2826 23.6196ZM15.4003 20.7508C15.4003 21.0928 15.6775 21.37 16.0195 21.37V20.7834C16.0015 20.7834 15.9869 20.7688 15.9869 20.7508H15.4003ZM17.2849 17.212C17.2593 17.1864 17.2627 17.1535 17.2759 17.1353L17.7513 17.4788C17.8987 17.2749 17.8874 16.985 17.6998 16.7973L17.2849 17.212ZM25.2774 25.2069C25.5192 25.4488 25.9114 25.4488 26.1532 25.2069L25.7383 24.7922C25.7256 24.8049 25.705 24.8049 25.6923 24.7922L25.2774 25.2069ZM17.0544 16.106C16.8127 16.3477 16.8127 16.7397 17.0544 16.9815L17.4693 16.5668C17.4566 16.554 17.4566 16.5334 17.4693 16.5207L17.0544 16.106ZM20.8893 14.936C20.8893 14.9257 20.8935 14.9172 20.8977 14.9124C20.9016 14.908 20.9064 14.9056 20.911 14.9049L21.0007 15.4846C21.2644 15.4438 21.4759 15.2187 21.4759 14.936H20.8893ZM18.391 15.645C18.1492 15.4031 17.7571 15.4031 17.5152 15.645L17.9301 16.0597C17.9428 16.047 17.9635 16.047 17.9762 16.0597L18.391 15.645ZM16.0195 19.4799C15.6775 19.4799 15.4003 19.7571 15.4003 20.0991H15.9869C15.9869 20.0811 16.0015 20.0665 16.0195 20.0665V19.4799ZM20.8893 26.2408C20.8893 26.5828 21.1665 26.86 21.5085 26.86V26.2734C21.4905 26.2734 21.4759 26.2588 21.4759 26.2408H20.8893ZM21.5085 13.9909C21.1665 13.9909 20.8893 14.2681 20.8893 14.6101H21.4759C21.4759 14.5921 21.4905 14.5775 21.5085 14.5775V13.9909ZM16.3454 21.37C16.3358 21.37 16.3279 21.3662 16.3235 21.3623C16.3194 21.3588 16.3172 21.3546 16.3165 21.3507L16.894 21.2477C16.8478 20.9886 16.6241 20.7834 16.3454 20.7834V21.37ZM22.7795 25.8474C22.7795 25.8399 22.7819 25.8319 22.789 25.8237C22.7965 25.8149 22.808 25.8076 22.8222 25.8049L22.7106 25.229C22.4225 25.2848 22.1929 25.5346 22.1929 25.8474H22.7795ZM18.5518 15.8666C18.5677 15.8552 18.5977 15.8517 18.6214 15.8754L18.2065 16.2901C18.3953 16.479 18.6866 16.4911 18.8926 16.344L18.5518 15.8666ZM26.3187 23.575C26.3133 23.5697 26.3094 23.5622 26.3086 23.5513C26.3078 23.5397 26.3109 23.5263 26.3191 23.5144L25.8365 23.181C25.6683 23.4244 25.6809 23.7667 25.9038 23.9897L26.3187 23.575ZM16.296 19.5179C16.2985 19.5018 16.3144 19.4799 16.3454 19.4799V20.0665C16.6182 20.0665 16.8361 19.8629 16.8757 19.6078L16.296 19.5179ZM20.8451 25.8302C20.8596 25.8326 20.8716 25.8398 20.8794 25.8487C20.8868 25.8571 20.8893 25.8652 20.8893 25.8729H21.4759C21.4759 25.5535 21.237 25.3009 20.9418 25.2516L20.8451 25.8302ZM22.783 14.9333C22.7803 14.9328 22.7787 14.9315 22.7781 14.9309C22.778 14.9307 22.7783 14.931 22.7787 14.9321C22.7792 14.9334 22.7795 14.9348 22.7795 14.936H22.1929C22.1929 15.2267 22.4063 15.4598 22.6756 15.51L22.783 14.9333ZM22.7795 14.6101C22.7795 14.2681 22.5022 13.9909 22.1603 13.9909V14.5775C22.1783 14.5775 22.1929 14.5921 22.1929 14.6101H22.7795Z" fill="#0278D5"/>
</svg>
